public/favicon.svg

<svg clip-rule="evenodd" fill-rule="evenodd" stroke-linejoin="round" stroke-miterlimit="2" viewBox="0 0 32 32" xmlns="http://www.w3.org/2000/svg"><g transform="scale(.217368 .254408)"><path d="m0 0h147.216v125.782h-147.216z" fill="none"/><path d="m32 8.5v16.137c0 4.064-3.242 7.363-7.236 7.363h-17.528c-3.994 0-7.236-3.299-7.236-7.363v-17.274c0-4.064 3.242-7.363 7.236-7.363h15.369l.165-.168c1.153-1.535 2.971-2.526 5.014-2.526 3.482 0 6.309 2.876 6.309 6.42 0 1.894-.809 3.598-2.093 4.774z" fill="#3b82f6" transform="matrix(4.31811 0 0 3.62546 0 9.7674)"/><path d="m1012.9 175.92c-54.422-54.422-142.69-54.422-197.11 0l-320.06 320.06c-6.047 6.047-10.125 13.734-11.812 22.078l-33.984 170.02c-2.859 14.156 1.594 28.781 11.812 39s24.844 14.672 39 11.812l170.02-33.984c8.344-1.688 16.031-5.766 22.078-11.812l320.056-320.06c54.43-54.422 54.43-142.69 0-197.11zm-135.98 61.078c20.672-20.672 54.188-20.672 74.906 0 20.672 20.719 20.672 54.234 0 74.906l-310.82 310.82-93.656 18.75 18.75-93.656zm-617.72 159c0-55.688 45.094-100.78 100.78-100.78h171c23.859 0 43.219-19.359 43.219-43.219s-19.359-43.219-43.219-43.219h-171c-103.41 0-187.22 83.812-187.22 187.22v432c0 103.41 83.812 187.22 187.22 187.22h432c103.41 0 187.22-83.812 187.22-187.22v-171c0-23.859-19.359-43.219-43.219-43.219s-43.219 19.359-43.219 43.219v171c0 55.688-45.094 100.78-100.78 100.78h-432c-55.688 0-100.78-45.094-100.78-100.78z" fill="#fff" transform="matrix(.152621 0 0 .130401 -19.9854 -12.1103)"/></g></svg>

<?xml version="1.0" encoding="UTF-8" standalone="no"?>
<!DOCTYPE svg PUBLIC "-//W3C//DTD SVG 1.1//EN" "http://www.w3.org/Graphics/SVG/1.1/DTD/svg11.dtd">
<svg width="100%" height="100%" viewBox="0 0 32 32" version="1.1" xmlns="http://www.w3.org/2000/svg" xmlns:xlink="http://www.w3.org/1999/xlink" xml:space="preserve" xmlns:serif="http://www.serif.com/" style="fill-rule:evenodd;clip-rule:evenodd;stroke-linejoin:round;stroke-miterlimit:2;">
    <g transform="matrix(0.034251,0,0,0.0342512,-4.96547,-3.7385)">
        <path d="M1012.9,175.92C958.478,121.498 870.21,121.498 815.79,175.92L495.73,495.98C489.683,502.027 485.605,509.714 483.918,518.058L449.934,688.078C447.075,702.234 451.528,716.859 461.746,727.078C471.964,737.297 486.59,741.75 500.746,738.89L670.766,704.906C679.11,703.218 686.797,699.14 692.844,693.094L1012.9,373.034C1067.33,318.612 1067.33,230.344 1012.9,175.924L1012.9,175.92ZM876.92,236.998C897.592,216.326 931.108,216.326 951.826,236.998C972.498,257.717 972.498,291.232 951.826,311.904L641.006,622.724L547.35,641.474L566.1,547.818L876.92,236.998ZM259.2,395.998C259.2,340.31 304.294,295.218 359.98,295.218L530.98,295.218C554.839,295.218 574.199,275.859 574.199,251.999C574.199,228.139 554.84,208.78 530.98,208.78L359.98,208.78C256.57,208.78 172.76,292.592 172.76,396L172.76,828C172.76,931.41 256.572,1015.22 359.98,1015.22L791.98,1015.22C895.39,1015.22 979.2,931.408 979.2,828L979.2,657C979.2,633.141 959.841,613.781 935.981,613.781C912.121,613.781 892.762,633.14 892.762,657L892.762,828C892.762,883.688 847.668,928.78 791.982,928.78L359.982,928.78C304.294,928.78 259.202,883.686 259.202,828L259.2,395.998Z" style="fill:rgb(68,138,255);"/>
    </g>
</svg>
